X:1
T:Speeding Onward
T:William James Kirkpatrick
T:Speeding Onward
T:Public Domain
T:Public Domain
T:Public Domain
C:William James Kirkpatrick
Z:Public Domain
%%score ( 1 2 ) ( 3 4 )
L:1/8
M:4/4
K:G
V:1 treble 
V:2 treble 
V:3 bass 
V:4 bass 
V:1
 (3(DE)[CF] x | [B,G]>[A,F] [B,G]>[CA] [DB]>[DA] [DB]>[Dc] | [Dd]>[G^c] [Gd]>[Ge] [Gd]2 [GB]>[Gd] | %3
w: 1.~We * are|ing, speed- ing on- ward to the great|tri- umph- ant day, When we’ll lay|
w: 2.~We * are|ing, speed- ing on- ward, we the vic-|to- ry shall win, And in tri-|
w: 3.~We * are|ing, speed- ing on- ward to the bless-|èd home a- bove, O the joys|
 [Fc]>[FB] [FA]>[Fc] [GB]>[DA] [DG]>[GB] | (A2 d4) (3(DE)[CF] | %5
w: our bur- dens down at Je- sus’ feet;|With * the * might-|
w: umph we shall safe- ly reach the goal;|Tho’ * the * clouds|
w: that will at- tend us o- ver there!|Then * we’ll * shout|
 [B,G]>[A,F] [B,G]>[CA] [DB]>[DA] [DB]>[Dc] | [Dd]>[G^c] [Gd]>[Ge] [Gd]2 [GB]>[Gd] | %7
w: un- num- bered we shall stand in white|ar- ray— In the grand- eur so|
w: ther o’er us we’ll not lose the sight|of Him, ’Tis His pre- sence that|
w: the prais- es of the Sav- ior’s won-|drous love, As we en- ter in-|
 [Fc]>[DB] [DA]>[DG] [DF]>[Fc] [FB]>[FA] | [DG]6 ||"^Refrain" d>e | (G2 G2 [Gd]>)[GB] [Ge]>[Gd] | %11
w: a- maz- ing lost com- plete. Speed- ing|on-|ward, home|to * * glo- ry, Where|
w: il- lum- in- ates the soul. * *||||
w: to man- sions bright and fair. * *||||
 [Gd]4 [GB]2 (3([Bd][Ac])[GB] | [Fc]4- [Fc]>[GB] [Ac]>[FA] | [GB]6 d>e | %14
w: saved with Je- * sus|dwell, * Soon we’ll join|that hap- py|
w: |||
w: |||
 (G2 G2 [Gd]>)[GB] [Ge]>[Gd] | [Gd]4 [DB]2 (3([EG][DF])[CE] | [B,D-]4 [A,D]>[DB] [DB]>[DA] | %17
w: chor- * * us, Ev- er-|His prais- es * swell.||
w: |||
w: |||
 (D2 E2 [DG]2) |] %18
w: |
w: |
w: |
V:2
 D2 x | x8 | x8 | x8 | F6 D2 | x8 | x8 | x8 | x6 || x2 | d4- x4 | x8 | x8 | x8 | d4- x4 | x8 | x8 | %17
w: speed-||||y host||||||the||||more|||
w: speed-||||may ga-|||||||||||||
w: speed-||||and sing|||||||||||||
 G4- x2 |] %18
w: |
w: |
w: |
V:3
 (3:2:2D,2 D, x | [G,,D,]>[G,,D,] [G,,D,]>[G,,D,] [G,,G,]>[G,,F,] [G,,G,]>[G,,A,] | %2
w: ~ ~|~ ~ ~ ~ ~ ~ ~ ~|
 [G,B,]>[G,^A,] [G,B,]>[G,C] [G,B,]2 [G,D]>[G,B,] | %3
w: ~ ~ ~ ~ ~ ~ ~|
 [D,A,]>[D,A,] [D,D]>[D,D] [G,D]>[G,C] [G,B,]>[G,D] | (D2 A,B, C2) (3(F,G,)[D,A,] | %5
w: ~ ~ ~ ~ ~ ~ ~ ~|~ * * * ~ * ~|
 [G,,G,]>[G,,D,] [G,,D,]>[G,,D,] [G,,G,]>[G,,F,] [G,,G,]>[G,,A,] | %6
w: ~ ~ ~ ~ ~ ~ ~ ~|
 [G,B,]>[G,^A,] [G,B,]>[G,C] [G,B,]2 [G,D]>[G,B,] | %7
w: ~ ~ ~ ~ ~ ~ ~|
 [D,A,]>[D,G,] [D,F,]>[D,B,] [D,A,]>[D,A,] [D,D]>[D,C] | [G,,B,]6 || z2 | %10
w: ~ ~ ~ ~ ~ Speed- ing on-|ward,||
 [G,B,]2 [G,B,]2 [G,B,]2 [G,C]2 | [G,B,]2 [G,B,]2 [G,D]2 [G,B,]2 | [D,A,]2 [D,A,]2 [D,A,]2 [D,D]2 | %13
w: home to glo- ry,|Where the saved with|Je- sus dwell, Soon|
 [G,D]2 [G,D]2 [G,D]2 z2 | [G,B,]2 [G,B,]2 [G,B,]2 [G,C]2 | [G,B,]2 [G,B,]2 G,2 [C,G,]2 | %16
w: we’ll join that|hap- py chor- us,|Ev- er- more His|
 [D,G,]2 [D,G,]2 [D,F,]2 [D,C]2 | [G,,B,]2 [C,C]2 [G,,B,]2 |] %18
w: es swell. * *||
V:4
 D,2 D, | x8 | x8 | x8 | D,6 D,2 | x8 | x8 | x8 | x6 || x2 | x8 | x8 | x8 | x8 | x8 | x4 G,2 x2 | %16
w: ~ ~||||~ ~|||||||||||prais-|
 x8 | x6 |] %18
w: ||

